assets/azureinfrastructurebackup/original.svg

<svg height="18" viewBox="0 0 18 18" width="18" xmlns="http://www.w3.org/2000/svg" xmlns:xlink="http://www.w3.org/1999/xlink"><linearGradient id="a" gradientUnits="userSpaceOnUse" x1="6.49" x2="6.49" y1="17.38" y2=".44"><stop offset="0" stop-color="#949494"/><stop offset=".53" stop-color="#a2a2a2"/><stop offset="1" stop-color="#b3b3b3"/></linearGradient><linearGradient id="b" gradientUnits="userSpaceOnUse" x1="10.06" x2="16.48" y1="13.89" y2="13.89"><stop offset="0" stop-color="#005ba1"/><stop offset=".07" stop-color="#0060a9"/><stop offset=".36" stop-color="#0071c8"/><stop offset=".52" stop-color="#0078d4"/><stop offset=".64" stop-color="#0074cd"/><stop offset=".82" stop-color="#006abb"/><stop offset="1" stop-color="#005ba1"/></linearGradient><path d="m11 9.57a6.7 6.7 0 0 0 -2.23.32 6.6 6.6 0 0 0 2.23.33 6.6 6.6 0 0 0 2.23-.33 6.6 6.6 0 0 0 -2.23-.32" fill="#198ab3"/><path d="m11.47 16.81a.57.57 0 0 1 -.58.57h-8.8a.56.56 0 0 1 -.57-.57v-15.81a.57.57 0 0 1 .57-.56h8.8a.58.58 0 0 1 .58.57z" fill="url(#a)"/><path d="m3 6.38a1.08 1.08 0 0 1 1.06-1.08h4.94a1.08 1.08 0 0 1 1.08 1.08 1.08 1.08 0 0 1 -1.08 1.09h-4.94a1.08 1.08 0 0 1 -1.06-1.09m0-3.21a1.08 1.08 0 0 1 1.06-1.08h4.94a1.08 1.08 0 0 1 1.08 1.08 1.08 1.08 0 0 1 -1.08 1.08h-4.94a1.08 1.08 0 0 1 -1.06-1.08" fill="#003067"/><circle cx="4.11" cy="3.17" fill="#50e6ff" r=".73"/><circle cx="4.11" cy="6.38" fill="#50e6ff" r=".73"/><path d="m13.27 11.38c-1.77 0-3.21-.53-3.21-1.17v6.19c0 .63 1.42 1.15 3.17 1.16 1.78 0 3.21-.52 3.21-1.16v-6.19c.04.64-1.39 1.17-3.17 1.17" fill="url(#b)"/><path d="m16.48 10.21c0 .64-1.43 1.17-3.21 1.17s-3.21-.53-3.21-1.17 1.44-1.16 3.21-1.16 3.21.52 3.21 1.16" fill="#e6e6e6"/><path d="m15.73 10.12c0 .41-1.1.74-2.46.74s-2.46-.33-2.46-.74 1.1-.74 2.46-.74 2.46.33 2.46.74m-2.05-1.46 2.13-2.13a.11.11 0 0 0 -.08-.19h-1.24c0-2.57-1.37-5.13-3.84-5.13a6.68 6.68 0 0 1 2 5.13h-1.18a.11.11 0 0 0 -.08.19l2.13 2.13a.12.12 0 0 0 .16 0" fill="#50e6ff"/></svg>

<svg xmlns="http://www.w3.org/2000/svg" width="18" height="18" viewBox="0 0 18 18"><defs><linearGradient id="fdd5d44a-d038-42da-afe7-cecaad9f8ff9" x1="6.49" x2="6.49" y1="17.38" y2=".44" gradientUnits="userSpaceOnUse"><stop offset="0" stop-color="#949494"/><stop offset=".53" stop-color="#a2a2a2"/><stop offset="1" stop-color="#b3b3b3"/></linearGradient><linearGradient id="bf4a560d-147b-4f76-9d70-f90bc5f8ddd6" x1="10.06" x2="16.48" y1="13.89" y2="13.89" gradientUnits="userSpaceOnUse"><stop offset="0" stop-color="#005ba1"/><stop offset=".07" stop-color="#0060a9"/><stop offset=".36" stop-color="#0071c8"/><stop offset=".52" stop-color="#0078d4"/><stop offset=".64" stop-color="#0074cd"/><stop offset=".82" stop-color="#006abb"/><stop offset="1" stop-color="#005ba1"/></linearGradient></defs><g id="a55981fb-ccb2-4f5b-acf6-743ff717cb3a"><path fill="#198ab3" d="M11 9.57a6.7 6.7 0 0 0-2.23.32 6.6 6.6 0 0 0 2.23.33 6.6 6.6 0 0 0 2.23-.33A6.6 6.6 0 0 0 11 9.57"/><path fill="url(#fdd5d44a-d038-42da-afe7-cecaad9f8ff9)" d="M11.47 16.81a.57.57 0 0 1-.58.57h-8.8a.56.56 0 0 1-.57-.57V1a.57.57 0 0 1 .57-.56h8.8a.58.58 0 0 1 .58.57Z"/><path fill="#003067" d="M3 6.38A1.08 1.08 0 0 1 4.06 5.3H9a1.08 1.08 0 0 1 1.08 1.08A1.08 1.08 0 0 1 9 7.47H4.06A1.08 1.08 0 0 1 3 6.38M3 3.17a1.08 1.08 0 0 1 1.06-1.08H9a1.08 1.08 0 0 1 1.08 1.08A1.08 1.08 0 0 1 9 4.25H4.06A1.08 1.08 0 0 1 3 3.17"/><circle cx="4.11" cy="3.17" r=".73" fill="#50e6ff"/><circle cx="4.11" cy="6.38" r=".73" fill="#50e6ff"/><path fill="url(#bf4a560d-147b-4f76-9d70-f90bc5f8ddd6)" d="M13.27 11.38c-1.77 0-3.21-.53-3.21-1.17v6.19c0 .63 1.42 1.15 3.17 1.16 1.78 0 3.21-.52 3.21-1.16v-6.19c.04.64-1.39 1.17-3.17 1.17"/><path fill="#e6e6e6" d="M16.48 10.21c0 .64-1.43 1.17-3.21 1.17s-3.21-.53-3.21-1.17 1.44-1.16 3.21-1.16 3.21.52 3.21 1.16"/><path fill="#50e6ff" d="M15.73 10.12c0 .41-1.1.74-2.46.74s-2.46-.33-2.46-.74 1.1-.74 2.46-.74 2.46.33 2.46.74M13.68 8.66l2.13-2.13a.11.11 0 0 0-.08-.19h-1.24c0-2.57-1.37-5.13-3.84-5.13a6.68 6.68 0 0 1 2 5.13h-1.18a.11.11 0 0 0-.08.19l2.13 2.13a.12.12 0 0 0 .16 0"/></g></svg>
